!!!!SEGMENT: pl-wnifc--13846--013_anonim--piesni-polskie-i-ruskie-ludu-galicyjskiego-13-a-kto-chce-roskoszy-uzyc.krn
!!!kernsource:
!!!cenid: 18xx:3235
!!!COM: Anonim
!!!COM-rismID:
!!!CDT:
!!!CNT:
!!!GTL: Pieśni polskie i ruskie ludu galicyjskiego
!!!OTL: 13. A kto chce roskoszy użyć
!!!PDT: 1833
!!!AGN:
!!!SMS-siglum: PL-Wnifc
!!!SMS-shelfmark: 13846
!!!SMS-shelfwork: 013 G
!!!NIFC-rismSourceID: 1001036738
!!!NIFC-islandoraID:
!!!URL-pdf-islandora:
!!!URL-scan:
!!!ONB-nifc:
!!!AIN: 1 piano 1 vox
!!!key: g
!!!OMD: Allegretto quasi Andante.
**kern	**kern	**kern	**text
*part2	*part2	*part1	*part1
*staff3	*staff2	*staff1	*staff1
*I"FORTEPIAN.	*I"FORTEPIAN.	*I"GŁOS.	*
*Ipiano	*Ipiano	*Ivox	*
*ICklav	*ICklav	*ICvox	*
*IGacmp	*IGacmp	*IGsolo	*
*clefF4	*clefG2	*clefG2	*
*k[b-e-]	*k[b-e-]	*k[b-e-]	*
*g:	*g:	*g:	*
*M3/8	*M3/8	*M3/8	*
=1-	=1-	=1-	=1-
!LO:TX:t=P:problem=mixed beam	!	!LO:TX:a:t=C.d.12.	!
8GG/L 8GGG/	16b-/LL 16g/	16b-\	A
.	16cc/JJ 16a/	16cc\	kto
8G\J	8.dd\L 8.b-\	8.dd\	chce
8r	.	.	.
.	16cc\Jk 16a\	16cc\	ro-
=2	=2	=2	=2
!LO:TX:t=P:problem=mixed beam	!	!	!
8GG/L	16ee-\LL 16cc\	16ee-\	-sko-
.	16dd\JJ 16b-\	16dd\	-szy
8G\	8cc\L 8a\	8cc\	u-
8G\J	8b-\J 8g\	8b-\	-żyć,
!!LO:PB:g=original
=3	=3	=3	=3
!LO:TX:t=P:problem=mixed beam	!	!	!
8DD/L	16a/LL 16f#X/	16a/	nie-
.	16b-/JJ 16g/	16b-/	-chaj
8D\J	8.cc\L 8.a\	8.cc/	i-
8r	.	.	.
.	16b-\Jk 16g\	16b-/	-dzie
=4	=4	=4	=4
8DD/L	16dd\LL 16b-\	16dd\	w woj-
.	16cc\JJ 16a\	16cc\	-sku
8D/	8b-/L 8g/	8b-\	słu-
8D/J	8a/J 8f#X/	8a\	-żyć,
=5	=5	=5	=5
8GG/ 8GGG/	16b-\LL 16g\	16b-\	tam
.	16cc\JJ 16a\	16cc\	to
!!LO:LB:g=original
8G\	8.dd\L 8.b-\	8.dd\	ro-
8r	.	.	.
.	16cc\Jk 16a\	16cc\	-sko-
=6	=6	=6	=6
!LO:TX:t=P:problem=mixed beam	!	!	!
8GG/L	16ee-\LL 16cc\	16ee-\	-szy
.	16dd\JJ 16b-\	16dd\	u-
8G\	8cc\L 8a\	8cc\	-ży-
8G\J	8b-\J 8g\	8b-\	-je,
=7	=7	=7	=7
8DD/L	16a/LL 16f#X/	16a/	na-
.	16b-/JJ 16g/	16b-/	-jé
8D\J	8.cc\L 8.a\	8.cc\	się
8r	.	.	.
.	16b-\Jk 16g\	16b-\	do-
!!LO:LB:g=original
=8	=8	=8	=8
8DD/L	16dd\LL 16b-\	16dd\	-brze
.	16cc\JJ 16a\	16cc\	na-
8D/	8b-/L 8g/	8b-\	-pi-
8D/J	8a/J 8f#X/	8a\	-je
=9	=9	=9	=9
*	*^	*	*
4.c\ 4.A\ 4.D\	(8dd/	4.f#X\ 4.d\	8dd\	łez
.	8cc/L	.	(8cc\L	gorz-
.	16b-/L	.	16b-\L	.
.	(<16a/JJ	.	16a/JJ)	.
=10	=10	=10	=10	=10
*^	*	*	*	*
4B-/	4G\	4g/)	4d\)	4g/	-kich.
8r	8ryy	8r	8ryy	8r;	.
*v	*v	*	*	*	*
*	*v	*v	*	*
==	==	==	==
*-	*-	*-	*-
!!!system-decoration: s1{(s2,s3)}
!!!RDF**kern: < = below
!!!ENC: Marta Lawrence
!!!END: 2021-11-10
